svgs/light/face-anxious-sweat.svg

<svg xmlns="http://www.w3.org/2000/svg" viewBox="0 0 576 512"><!--! Font Awesome Pro 6.3.0 by @fontawesome - https://fontawesome.com License - https://fontawesome.com/license (Commercial License) Copyright 2023 Fonticons, Inc. --><path d="M288 32C174.4 32 80.57 116.5 65.98 226.1C64.81 234.9 56.76 241 48 239.9C39.24 238.7 33.09 230.6 34.26 221.9C50.95 96.62 158.2 0 288 0C429.4 0 544 114.6 544 256C544 397.4 429.4 512 288 512C230.4 512 177.2 492.9 134.4 460.8C127.3 455.5 125.9 445.5 131.2 438.4C136.5 431.3 146.5 429.9 153.6 435.2C191 463.3 237.5 480 288 480C411.7 480 512 379.7 512 256C512 132.3 411.7 32 288 32H288zM55.47 276.1C59.73 270.6 68.27 270.6 72.53 276.1C90.09 297.8 128 348.3 128 373.3C128 405.8 99.28 432 64 432C28.72 432 0 405.8 0 373.3C0 348.3 38.07 297.8 55.47 276.1zM48.24 340.6C42.84 349.1 38.41 357 35.43 363.7C32.83 369.5 32.2 372.5 32.05 373.2C32.01 373.4 32 373.4 32 373.3C32 385.5 43.71 400 64 400C84.29 400 96 385.5 96 373.3C96 373.4 95.99 373.4 95.95 373.2C95.81 372.5 95.18 369.5 92.58 363.6C89.61 356.1 85.19 349.1 79.81 340.6C74.81 332.7 69.32 324.8 64.04 317.5C58.74 324.8 53.25 332.7 48.24 340.6H48.24zM367.6 296C354.4 296 343.6 285.3 343.6 272C343.6 258.7 354.4 248 367.6 248C380.9 248 391.6 258.7 391.6 272C391.6 285.3 380.9 296 367.6 296zM207.6 248C220.9 248 231.6 258.7 231.6 272C231.6 285.3 220.9 296 207.6 296C194.4 296 183.6 285.3 183.6 272C183.6 258.7 194.4 248 207.6 248zM203.9 178.7C180.4 202.3 150 217.9 117.1 223.4L114.6 223.8C105.9 225.2 97.67 219.3 96.22 210.6C94.76 201.9 100.7 193.7 109.4 192.2L111.9 191.8C138.2 187.4 162.5 174.9 181.3 156.1L188.7 148.7C194.9 142.4 205.1 142.4 211.3 148.7C217.6 154.9 217.6 165.1 211.3 171.3L203.9 178.7zM387.3 148.7L394.7 156.1C413.5 174.9 437.8 187.4 464.2 191.8L466.6 192.2C475.3 193.7 481.2 201.9 479.8 210.6C478.3 219.3 470.1 225.2 461.4 223.8L458.9 223.4C425.1 217.9 395.6 202.3 372.1 178.7L364.7 171.3C358.4 165.1 358.4 154.9 364.7 148.7C370.9 142.4 381.1 142.4 387.3 148.7zM292.2 304C342.9 304 384 345.1 384 395.8C384 406.1 374.1 416 363.8 416H212.2C201 416 192 406.1 192 395.8C192 345.1 233.1 304 283.8 304H292.2zM292.2 336H283.8C254.8 336 230.6 356.6 225.2 384H350.8C345.4 356.6 321.2 336 292.2 336H292.2z"/></svg>

<svg xmlns="http://www.w3.org/2000/svg" viewBox="0 0 576 512"><!--! Font Awesome Pro 6.4.0 by @fontawesome - https://fontawesome.com License - https://fontawesome.com/license (Commercial License) Copyright 2023 Fonticons, Inc. --><path d="M288 32C174.4 32 80.6 116.5 66 226.1c-1.2 8.8-9.2 14.9-18 13.7s-14.9-9.2-13.7-18C50.9 96.6 158.2 0 288 0C429.4 0 544 114.6 544 256s-114.6 256-256 256c-57.6 0-110.8-19.1-153.6-51.2c-7.1-5.3-8.5-15.3-3.2-22.4s15.3-8.5 22.4-3.2C191 463.3 237.5 480 288 480c123.7 0 224-100.3 224-224S411.7 32 288 32zM64 317.5c-5.3 7.2-10.8 15.1-15.8 23c-5.4 8.5-9.8 16.4-12.8 23.1c-2.6 5.8-3.2 8.8-3.4 9.5c0 .2 0 .2 0 .1C32 385.5 43.7 400 64 400s32-14.5 32-26.7c0 .1 0 .1 0-.1c-.1-.7-.8-3.7-3.4-9.6c-3-6.7-7.4-14.5-12.8-23.1c-5-7.9-10.5-15.8-15.8-23zm-8.6-41.4c4.3-5.5 12.8-5.5 17.1 0c17.6 21.7 55.5 72.2 55.5 97.2c0 32.5-28.7 58.7-64 58.7s-64-26.2-64-58.7c0-25 38.1-75.5 55.5-97.2zM367.6 248a24 24 0 1 1 0 48 24 24 0 1 1 0-48zm-136 24a24 24 0 1 1 -48 0 24 24 0 1 1 48 0zM211.3 171.3l-7.4 7.4c-23.6 23.6-53.9 39.2-86.8 44.7l-2.5 .4c-8.7 1.5-17-4.4-18.4-13.2s4.4-17 13.2-18.4l2.5-.4c26.3-4.4 50.6-16.9 69.5-35.7l7.4-7.4c6.2-6.2 16.4-6.2 22.6 0s6.2 16.4 0 22.6zm153.4-22.6c6.2-6.2 16.4-6.2 22.6 0l7.4 7.4c18.9 18.9 43.2 31.4 69.5 35.7l2.5 .4c8.7 1.5 14.6 9.7 13.2 18.4s-9.7 14.6-18.4 13.2l-2.5-.4c-32.9-5.5-63.3-21.1-86.8-44.7l-7.4-7.4c-6.2-6.2-6.2-16.4 0-22.6zM283.8 304h8.4c50.7 0 91.8 41.1 91.8 91.8c0 11.2-9 20.2-20.2 20.2H212.2c-11.2 0-20.2-9-20.2-20.2c0-50.7 41.1-91.8 91.8-91.8zm67 80c-5.5-27.4-29.6-48-58.6-48h-8.4c-29 0-53.2 20.6-58.6 48H350.8z"/></svg>
